X:1
T:Title
%%score { ( 1 3 4 ) | 2 }
L:1/8
M:6/8
K:Bb
V:1 treble nm="Grand Piano"
V:3 treble 
V:4 treble 
V:2 bass 
V:1
 z3 z2[Q:1/4=90] [DF] | [DF][EG][EA] [DB][CA][DB] | [Ec]3 [EG]2 [DF] | %3
 [DF]>[_D=E][=DF] [FB][Fc][Fd] | c3- c2 F | [Fd]>[Ec][DB] [DB][DB][Fd] | [Ge]3 G2 G | F<FF FGA | %8
 [DB]3- [DB]2 [DF] | %9
[M:29/32] (7:8:17[Fd]3/2-[Fd]/4-[Fd]/16[Ec]3/8-[Ec]/16-[Ec]/64[DB]3/4-[DB]/8-[DB]/32[Ec]3/4-[Ec]/8-[Ec]/32[DB]-[DB]/4-[DB]3/32-[DB]/64[DB]3/4- z5/64 (7:8:2[DB]/8-[DB]/32 | %10
 z/4 z/4 z/4 z/4 z/4 z/4 z/ A3/4 z/4 z/ c/4-c/-<c/ z/4 z/4 z/4 z/4 z/4 z/4 z/4 z/4 z/ | %11
[M:3/4] A>G FF Bd | c4- cF | [Fd]>[Ec] [DB][Ec] [DB][DB] | B>A Bc GB | %15
 A2 G/F/e dc[Q:1/4=89][Q:1/4=87][Q:1/4=86][Q:1/4=85][Q:1/4=83][Q:1/4=82][Q:1/4=81][Q:1/4=79][Q:1/4=78][Q:1/4=77][Q:1/4=75][Q:1/4=74][Q:1/4=73][Q:1/4=71][Q:1/4=70][Q:1/4=69] | %16
[M:5/8] [DB]-[DB]- [DB]3 |] %17
V:2
 z3 z2 [B,,B,] | [B,,B,][B,,B,][B,,B,] [B,,B,][B,,B,][B,,B,] | [E,G,]3 [E,B,]2 [B,,B,] | %3
 [B,,B,]>[B,,B,][B,,B,] [D,B,][C,A,][B,,B,] | [F,A,F]3- [F,A,F]2 [F,A,] | %5
 [B,,B,]>[B,,B,][B,,B,] [B,,B,][B,,B,][B,,B,] | [E,B,]3 [E,B,E]2 [E,B,E] | %7
 [F,B,D]<[F,B,D][F,B,D] [F,A,E][F,B,E][F,CE] | [B,,B,]3- [B,,B,]2 [B,,B,] | %9
[M:29/32] (7:8:17[B,,B,]3/2-[B,,B,]/4-[B,,B,]/16[B,,B,]3/8-[B,,B,]/16-[B,,B,]/64[B,,B,]3/4-[B,,B,]/8-[B,,B,]/32[B,,B,]3/4-[B,,B,]/8-[B,,B,]/32[B,,F,]-[B,,F,]/4-[B,,F,]3/32-[B,,F,]/64[B,,F,]3/4- z5/64 (7:8:2[B,,F,]/8-[B,,F,]/32 | %10
 [E,G,E]/4-[E,G,E]/4-[E,G,E]/4-[E,G,E]/4-[E,G,E]/-<[E,G,E]/[E,G,E]/[E,G,E]/-<[E,G,E]/[E,G,E]/-<[E,G,E]/[E,G,E]/4-[E,G,E]/4-[E,G,E]/-<[E,G,E]/[E,G,E]/4-[E,G,E]/-<[E,G,E]/ | %11
[M:3/4] [F,E]>[F,E] [F,E][F,B,D] [F,DF][F,B,F] | [F,A,F]4- [F,A,F][F,CE] | %13
 [B,,B,]>[B,,B,] [B,,B,][B,,B,] [B,,B,][B,,B,] | [E,G,E]>[E,G,E] [E,G,E][E,G,E] [E,B,E][E,B,E] | %15
 [F,E]2 [F,B,E]/[F,A,E]/[F,CF] [F,B,F][F,A,E] |[M:5/8] [B,,B,]-[B,,B,]- [B,,B,]3 |] %17
V:3
 x6 | x6 | x6 | x6 | x6 | x6 | x6 | x6 | x6 |[M:29/32] x37/5 | %10
 z/4 z/4 z/4 z/4 z/4 z/4 z/4 z/4 z/4 z/4 z/4 z/4 z/4 z/4 z/4 z/4 z/4 z/4 z/4 z/4 z/4 z/4 z/ B/4-B/-<B/ | %11
[M:3/4] x6 | x6 | x6 | x6 | x6 |[M:5/8] x5 |] %17
V:4
 x6 | x6 | x6 | x6 | x6 | x6 | x6 | x6 | x6 |[M:29/32] x37/5 | %10
 B/4-B/4-B/4-B/4-B/4-B/-<B/ z/4 B/4-B/-<B/ z/4 z/ G/4-G/4-G/4-G/-<G/ z/4 z/4 z/ |[M:3/4] x6 | x6 | %13
 x6 | x6 | x6 |[M:5/8] x5 |] %17

